X: 8
T:Fot Is Wrong With My Telly
M:4/4
L:1/8
Q:120
C:Robert Davidson
K:D
&quot;D&quot;f2ff ff ed|&quot;A&quot;ee fg-g2 aa|aa aa aa ag|&quot;D&quot;ff ga-a3a|!
aa aa af2f|&quot;G&quot;gg ab-b2 bb|&quot;A&quot;aa aa aa aa|zg fe &quot;D&quot;d3z:||
